!!!COM: Beethoven, Ludwig van
!!!CDT: 1770///-1827///
!!!ODT: 1798///-1800///
!!!OTL: String Quartet No. 6 in B-flat Major, Op. 18, No. 6
!!!OPS: Op. 18
!!!ONM: No. 6
!!!OMV: Mvmt. 3
!!!OMD: Scherzo. Allegro
!!!PDT: 1801///
!!!PPP: Vienna
!!!PPR: C. Haslinger qm Tobias
!!!ODE: Dem F&uuml;rsten von Lobkowitz gewidmet
!!!MPD: 1798///-1800///
**kern	**dynam	**kern	**dynam	**kern	**dynam	**kern	**dynam
*staff4	*staff4	*staff3	*staff3	*staff2	*staff2	*staff1	*staff1
*Icello	*Icello	*Iviola	*Iviola	*Ivioln	*Ivioln	*Ivioln	*Ivioln
*>[A,A,B,B1,B,B2,C,C,D,D1,D,D2,A,B,B2]	*>[A,A,B,B1,B,B2,C,C,D,D1,D,D2,A,B,B2]	*>[A,A,B,B1,B,B2,C,C,D,D1,D,D2,A,B,B2]	*>[A,A,B,B1,B,B2,C,C,D,D1,D,D2,A,B,B2]	*>[A,A,B,B1,B,B2,C,C,D,D1,D,D2,A,B,B2]	*>[A,A,B,B1,B,B2,C,C,D,D1,D,D2,A,B,B2]	*>[A,A,B,B1,B,B2,C,C,D,D1,D,D2,A,B,B2]	*>[A,A,B,B1,B,B2,C,C,D,D1,D,D2,A,B,B2]
*>norep[A,B,B2,C,D,D2,A,B,B2]	*>norep[A,B,B2,C,D,D2,A,B,B2]	*>norep[A,B,B2,C,D,D2,A,B,B2]	*>norep[A,B,B2,C,D,D2,A,B,B2]	*>norep[A,B,B2,C,D,D2,A,B,B2]	*>norep[A,B,B2,C,D,D2,A,B,B2]	*>norep[A,B,B2,C,D,D2,A,B,B2]	*>norep[A,B,B2,C,D,D2,A,B,B2]
*>A	*>A	*>A	*>A	*>A	*>A	*>A	*>A
*clefF4	*clefF4	*clefC3	*clefC3	*clefG2	*clefG2	*clefG2	*clefG2
*k[b-e-]	*k[b-e-]	*k[b-e-]	*k[b-e-]	*k[b-e-]	*k[b-e-]	*k[b-e-]	*k[b-e-]
*B-:	*B-:	*B-:	*B-:	*B-:	*B-:	*B-:	*B-:
*M3/4	*M3/4	*M3/4	*M3/4	*M3/4	*M3/4	*M3/4	*M3/4
*MM144	*MM144	*MM144	*MM144	*MM144	*MM144	*MM144	*MM144
8F\L	p	8f\L	p	4dd\	p	4ff\	p
8G\	.	8f\	.	.	.	.	.
8A\J	.	8f\J	.	[8cc\	.	[8ee-\	.
=1	=1	=1	=1	=1	=1	=1	=1
4B-\	.	4f\	.	8cc\L]	.	8ee-\L]	.
.	.	.	.	8b-\	.	8dd\	.
8r	.	8r	.	8b-\J	.	8dd\J	.
8FF/L	.	8a\L	.	8e-/L	.	8cc\L	.
8AA/	.	8f\	.	8d/	.	8b-\	.
8FF/J	.	8a\J	.	[8e-/J	.	[8cc\J	.
=2	=2	=2	=2	=2	=2	=2	=2
4BB-/	.	4f\	.	8e-/L]	.	8cc\L]	.
.	.	.	.	8d/	.	8b-\	.
8r	.	8r	.	8d/J	.	8b-\J	.
8F\L	.	8f\L	.	8c/L	.	8a\L	.
8B-\	.	8f\	.	8d/	.	8b-\	.
8A\J	.	8f\J	.	[8f/J	.	[8cc\J	.
=3	=3	=3	=3	=3	=3	=3	=3
4B-\	.	4f\	.	8f/L]	.	8cc\L]	.
.	.	.	.	8b-/	.	8dd\	.
8r	.	8r	.	8b-/	.	8dd\	.
8FF/L	.	8f\L	.	8a/	.	8cc\	.
8BB-/	.	8f\	.	8b-/	.	8dd\	.
8EE-/J	.	8g\J	.	8cc/J	.	8ee-\J	.
=4	=4	=4	=4	=4	=4	=4	=4
8FF/L	.	4f\	.	4a/	.	4cc\	.
8F/	.	.	.	.	.	.	.
8F/J	.	8r	.	8r	.	8r	.
8r	.	8a\L	.	4ee-\	.	4gg\	.
4r	.	8a\	.	.	.	.	.
.	.	8bn\J	.	[8dd\	.	[8ff\	.
=5	=5	=5	=5	=5	=5	=5	=5
4r	.	4cc\	.	8dd\L]	.	8ff\L]	.
.	.	.	.	8cc\	.	8ee-\	.
8r	.	8r	.	8cc\J	.	8ee-\J	.
8F#\L	.	8c/L	.	4a/	.	4ee-\	.
8F#\	.	8c/	.	.	.	.	.
8G\J	.	8B-/J	.	8b-\	.	[8dd\	.
=6	=6	=6	=6	=6	=6	=6	=6
4E-\	.	4G/	.	4g/	.	8dd\L]	.
.	.	.	.	.	.	8cc\J	.
8r	.	8r	.	8r	.	8cc\	.
8C\L	p	8c\L	p	4g/	p	4ee-\	p
8D\	.	8d\	.	.	.	.	.
8E-\J	.	8e-\J	.	8g/	.	[8cc\	.
=7	=7	=7	=7	=7	=7	=7	=7
8FF/L	.	8c\	.	8e-/	.	8cc\]	.
8F/	.	4c\	.	4e-/	.	4a/	.
8F/	.	.	.	.	.	.	.
8F/	.	4c\	.	4e-/	.	4f/	.
8F/	.	.	.	.	.	.	.
8F/J	.	8c\	.	8e-/	.	[8b-\	.
=8	=8	=8	=8	=8	=8	=8	=8
4BB-/	.	4B-/	.	4d/	.	8b-/L]	.
.	.	.	.	.	.	8B-/	.
8r	.	8r	.	8r	.	8B-/J	.
=:|!|:	=:|!|:	=:|!|:	=:|!|:	=:|!|:	=:|!|:	=:|!|:	=:|!|:
*>B	*>B	*>B	*>B	*>B	*>B	*>B	*>B
8F#\L	f	8A/L	f	4d/	f	4dd\	f
8G\	.	8B-/	.	.	.	.	.
8G\J	.	8B-/J	.	[8c#/	.	[8cc#\	.
=9	=9	=9	=9	=9	=9	=9	=9
4F#\	.	4A/	.	8c#/L]	.	8cc#\L]	.
.	.	.	.	8d/	.	8dd\	.
4r	.	8r	.	8d/	.	8dd\J	.
.	.	8f#\L	p	8dd/	p	4aa\	p
4r	.	8f#\	.	8dd/	.	.	.
.	.	8f\J	.	8g/J	.	[8bbn\	.
=10	=10	=10	=10	=10	=10	=10	=10
4r	.	4en\	.	4g/	.	8bb\L]	.
.	.	.	.	.	.	8ccc\	.
8r	.	8r	.	8r	.	8ccc\J	.
8En\L	f	8G/L	f	4c/	f	4cc\	f
8F\	.	8A-/	.	.	.	.	.
8F\J	.	8A-/J	.	[8Bn/	.	[8bn\	.
=11	=11	=11	=11	=11	=11	=11	=11
4En\	.	4G/	.	8B/L]	.	8b\L]	.
.	.	.	.	8c/	.	8cc\	.
4r	.	8r	.	8c/J	.	8cc\J	.
.	.	8en\L	p	8cc/L	p	4gg\	p
4r	.	8en\	.	8cc/	.	.	.
.	.	8e-\J	.	8f/J	.	8aa\	.
=12	=12	=12	=12	=12	=12	=12	=12
2.r	.	8e-\L	.	8f/L	.	8aa\L	.
.	.	8d\	.	8b-/	.	8bb-\	.
.	.	8d\	.	8b-/	.	8bb-\	.
.	.	8d\	<	8b-/	<	8ff#\	<
.	.	8d\	<	8b-/	<	8ff#\	<
.	.	8e-\J	.	8g/J	.	8gg\J	.
=13	=13	=13	=13	=13	=13	=13	=13
4r	.	8e-\L	.	8g/L	.	8gg\L	.
.	.	8Bn\	.	8g/	.	8dd\	.
8r	.	8Bn\	.	8g/	.	8dd\	.
8C/L	<	8c\	.	8g/	.	8ee-\	.
8C/	<	8G\	.	8g/	.	8ee-\	.
8D/J	.	8g\J	.	8f/J	.	8bn\J	.
=14	=14	=14	=14	=14	=14	=14	=14
8E-/L	.	8g\L	.	8g/L	.	8cc\L	.
8BBn/	.	8d\	.	8g/	.	8gg\	.
8C/	.	8e-\	.	8g/	.	8ee-\	.
8D/	.	8f\	.	8Bn/	.	8dd\	.
8E-/	.	8g\	.	8G/	.	8cc\	.
8En/J	.	8g\J	.	8c/J	.	8b-\J	.
=15	=15	=15	=15	=15	=15	=15	=15
8FF/L	.	4f\	p	4c/	p	4a/	p
8F/J	.	.	.	.	.	.	.
2F\	.	4r	.	8r	.	8r	.
.	.	.	.	4a/	.	4ff\	.
.	.	4r	.	.	.	.	.
.	.	.	.	8cc\	.	8ee-\	.
=16	=16	=16	=16	=16	=16	=16	=16
8FF/L	.	2.r	.	4b-\	.	4dd\	.
8F/J	.	.	.	.	.	.	.
2F\	.	.	.	8r	.	8r	.
.	.	.	.	4dd\	.	4bb-\	.
.	.	.	.	8een\	.	8bb-\	.
=17	=17	=17	=17	=17	=17	=17	=17
4FF/	.	8F/L	.	4ff\	.	4aa\	.
.	.	8f/J	.	.	.	.	.
4r	.	2f\	.	8r	.	8r	.
.	.	.	.	4aa\	.	4fff\	.
4r	.	.	.	.	.	.	.
.	.	.	.	8aa\	.	8eee-\	.
=18	=18	=18	=18	=18	=18	=18	=18
2.r	.	8F/L	.	4bb-\	.	4ddd-\	.
.	.	8f/J	.	.	.	.	.
.	.	2f\	.	8r	.	8r	.
.	.	.	.	4bb-\	.	4eeen\	.
.	.	.	.	8bb-\	.	8eeen\	.
=19	=19	=19	=19	=19	=19	=19	=19
2.r	.	4F/	.	4aa\	f	8fff\	f
.	.	.	.	.	.	4fff\	.
.	.	4r	.	4a/	.	.	.
.	.	.	.	.	.	4aa\	.
.	.	4r	.	4cc\	.	.	.
.	.	.	.	.	.	[8ccc\	.
=20	=20	=20	=20	=20	=20	=20	=20
2.r	.	4f\	f	2.r	.	8ccc\]	.
.	.	.	.	.	.	4ff\	.
.	.	4a\	.	.	.	.	.
.	.	.	.	.	.	4aa\	.
.	.	4c\	.	.	.	.	.
.	.	.	.	.	.	[8cc\	.
=21	=21	=21	=21	=21	=21	=21	=21
2.r	.	2.r	.	4f/	f	8cc\]	.
.	.	.	.	.	.	4ff\	.
.	.	.	.	4A/	.	.	.
.	.	.	.	.	.	4a/	.
.	.	.	.	4c/	.	.	.
.	.	.	.	.	.	[8cc\	.
=22	=22	=22	=22	=22	=22	=22	=22
4F\	f	4r	.	4r	.	8cc\]	.
.	.	.	.	.	.	(8f\L	.
4E-\	.	8r	.	8r	.	8ff\)	.
.	.	4f\	p	4ff\	p	(8ff\	.
4C/	.	.	.	.	.	8fff\)	.
.	.	[8e-\	.	[8ee-\	.	8fff\J	.
=23	=23	=23	=23	=23	=23	=23	=23
8BB-\L	p	8e-/L]	.	8ee-\L]	.	[2.fff\	p
8B-\	.	8d/	.	8dd\	.	.	.
8B-\	.	8d/	.	8dd\	.	.	.
8c\	.	8F/	.	8cc\	.	.	.
8B-\	.	8D/	.	8b-\	.	.	.
[8c\J	.	[8F/J	.	[8cc\J	.	.	.
=24	=24	=24	=24	=24	=24	=24	=24
8c\L]	.	8F/L]	.	8cc\L]	.	2.fff\_	.
8B-\	.	8D/	.	8b-\	.	.	.
8B-\	.	8D/	.	8b-\	.	.	.
8A\	.	8C/	.	8a\	.	.	.
8B-\	.	8D/	.	8b-\	.	.	.
[8c\J	.	[8F/J	.	[8cc\J	.	.	.
=25	=25	=25	=25	=25	=25	=25	=25
8c\L]	.	8F/L]	.	8cc\L]	.	2.fff\_	.
8d\	.	8B-/	.	8dd\	.	.	.
8d\	.	8B-/	.	8dd\	.	.	.
8c\	.	8F/	.	8cc\	.	.	.
8d\	.	8B-/	.	8dd\	.	.	.
8e-\J	.	8c/J	.	8ee-\J	.	.	.
=26	=26	=26	=26	=26	=26	=26	=26
4c\	.	4F/	.	4cc\	.	4.fff\]	.
8r	.	8r	.	8r	.	.	.
8A\L	.	4ee-\	.	4gg\	.	4ggg\	.
8A\	.	.	.	.	.	.	.
8Bn\J	.	[8dd\	.	[8ff\	.	[8fff\	.
=27	=27	=27	=27	=27	=27	=27	=27
4c\	.	8dd\L]	.	8ff\L]	.	8fff\L]	.
.	.	8cc\	.	8ee-\	.	8eee-\	.
8r	.	8cc\J	.	8ee-\J	.	8eee-\J	.
8F#\L	.	8A/L	.	4ee-\	.	4eee-\	.
8F#\	.	8A/	.	.	.	.	.
8G\J	.	8B-/J	.	[8dd\	.	[8ddd\	.
=28	=28	=28	=28	=28	=28	=28	=28
4E-\	.	4G/	.	8dd\L]	.	8ddd\L]	.
.	.	.	.	8cc\	.	8ccc\	.
8r	.	8r	.	8cc\J	.	8ccc\J	.
8C\L	.	8c\L	.	4ee-\	.	4eee-\	.
8D\	.	8d\	.	.	.	.	.
8E-\J	.	8e-\J	.	[8cc\	.	[8ccc\	.
=29	=29	=29	=29	=29	=29	=29	=29
8FF/L	.	8f\	.	8cc\]	.	8ccc\]	.
8F/	.	4c\ 4e-\	.	4a/	.	4aa\	.
8F/	.	.	.	.	.	.	.
8F/	.	4c\ 4e-\	.	4f/	.	4ff\	.
8F/	.	.	.	.	.	.	.
8F/J	.	8c\ 8e-\	.	[8b-\	.	[8bb-\	.
=30	=30	=30	=30	=30	=30	=30	=30
8BB-\L	.	4B-\ 4d\	.	4b-\]	.	4bb-\]	.
8B-\J	.	.	.	.	.	.	.
2B-\	.	4r	.	8r	.	8r	.
.	.	.	.	4f/	.	4aa-\	.
.	.	4r	.	.	.	.	.
.	.	.	.	[8d/	.	[8ff#\	.
=31	=31	=31	=31	=31	=31	=31	=31
8BB-\L	.	2.r	.	8d/L]	.	8ff#\L]	.
8B-\J	.	.	.	8e-/	.	8gg\	.
2B-\	.	.	.	8e-/J	.	8gg\J	.
.	.	.	.	4e-/	.	4gg\	.
.	.	.	.	[8c#/	.	[8een\	.
=32	=32	=32	=32	=32	=32	=32	=32
8BB-\L	.	4r	.	8c#/L]	.	8ee\L]	<
8B-\	<	.	.	8d/	<	8ff\	<
8B-\	<	8r	.	8d/J	<	8ff\J	.
8B-\	.	8b-\L	<	8f/L 8dd/	.	4ddd\	.
8B-\	.	8b-\	.	8f/ 8dd/	.	.	.
8B-\J	.	8b-\J	.	8f/J 8dd/	.	[8bb-\	f
=33	=33	=33	=33	=33	=33	=33	=33
4F\	f	4cc\	f	4f\ 4ee-\	f	8bb-\]	.
.	.	.	.	.	.	4aa\	.
4F\	.	4c\	.	4e-/	.	.	.
.	.	.	.	.	.	8ff\L	.
4F\	.	4A/	.	4c/ 4e-/	.	8ee-\	.
.	.	.	.	.	.	8cc\J	.
=34	=34	=34	=34	=34	=34	=34	=34
4BB-/	.	4B-/	.	4d/	.	8b-\L	.
.	.	.	.	.	.	8bb-\J	.
4r	.	8r	.	8r	.	2bb-\	.
.	.	4A-/	p	4a-/	p	.	.
4r	.	.	.	.	.	.	.
.	.	[8F#/	p	[8f#/	.	.	.
=35	=35	=35	=35	=35	=35	=35	=35
4r	.	8F#/L]	.	8f#/L]	.	8b-\L	.
.	.	8G/	.	8g/	.	8bb-\J	.
8r	.	8G/J	.	8g/J	.	[2bb-\	.
4GG/	.	4G/	.	8r	.	.	.
.	.	.	.	4r	.	.	.
[8EEn/	.	[8En/	.	.	.	.	.
=36	=36	=36	=36	=36	=36	=36	=36
8EE/L]	.	8E/L]	.	4r	.	4.bb-\]	.
8FF/	.	8F/	.	.	.	.	.
8FF/J	.	8F/J	.	8r	.	.	.
8r	.	4en\	.	4b-\	.	4gg\	.
4r	.	.	.	.	.	.	.
.	.	[8g\	.	[8b-\	.	[8cc#\ [8een\	.
=37	=37	=37	=37	=37	=37	=37	=37
4r	.	8g\L]	.	8b-\L]	.	8cc#\L] 8ee\]	.
.	.	8f\	.	8b-\	.	8dd\ 8ff\	.
8r	.	8f\J	.	8b-\J	.	8dd\J 8ff\	.
4GG/	.	4G/	.	4en/	.	[4.b-\ [4.bb-\	.
[8EEn/	.	[8En/	.	[8g/	.	.	.
=38	=38	=38	=38	=38	=38	=38	=38
8EE/L]	.	8E/L]	.	8g/L]	.	4.b-\] 4.bb-\]	.
8FF/	.	8F/	.	8f/	.	.	.
8FF/J	.	8F/J	.	8f/J	.	.	.
8r	.	4en\	.	4b-\	.	4gg\	.
4r	.	.	.	.	.	.	.
.	.	8g\	.	8b-\	.	8cc#\ 8een\	.
=39	=39	=39	=39	=39	=39	=39	=39
2.r	.	8g\L	p	8b-\L	p	8cc#\L 8een\	p
.	.	8f\	.	8b-\	.	8dd\ 8ff\	.
.	.	8f\	.	8b-\	.	8dd\ 8ff\	.
.	.	8g\	.	8b-\	.	8cc#\ 8een\	.
.	.	8g\	.	8b-\	.	8cc#\ 8een\	.
.	.	8f\J	.	8b-\J	.	8dd\J 8ff\	.
=40	=40	=40	=40	=40	=40	=40	=40
2.r	.	8f\L	<	8b-\L	<	8dd\L 8ff\	<
.	.	8g\	<	8b-\	<	8cc#\ 8een\	<
.	.	8g\	.	8b-\	.	8cc#\ 8een\	.
.	.	8f\	.	8b-\	.	8dd\ 8ff\	.
.	.	8f\	.	8b-\	.	8dd\ 8ff\	.
.	.	8g\J	.	8b-\J	.	8cc#\J 8een\	.
=41	=41	=41	=41	=41	=41	=41	=41
8g\L	.	8g\L	.	8b-\L	.	8cc#\L 8een\	.
8f\	.	8f\	.	8b-\	.	8dd\ 8ff\	.
8f\	.	8f\	.	8b-\	.	8dd\ 8ff\	.
8en\	.	8cc\	.	8b-\	.	8gg\	.
8en\	.	8cc\	.	8b-\	.	8gg\	.
8e-\J	.	8f\J	.	8cc\J	.	8aa\J	.
=42	=42	=42	=42	=42	=42	=42	=42
8e-\L	.	8f\L	.	8cc\L	.	8aa\L	.
8d\	.	8f\	.	8dd\	.	8bb-\	.
8d\	.	8f\	.	8dd\	.	8bb-\	.
8A\	.	8f\	.	8ee-\	.	8ccc\	.
8A\	.	8f\	.	8ee-\	.	8ccc\	.
8A-\J	.	8B-\J	.	8ff\J	.	8ddd\J	.
=43	=43	=43	=43	=43	=43	=43	=43
8A-\L	.	8B-\L	.	8b-\L	.	8ddd\L	.
8G\	.	8B-\	.	8b-\	.	8eee-\	.
8G\	.	8B-\	.	8b-\	.	8eee-\	.
8D\	.	8a-\	.	8b-\	.	8fff\	.
8E-\	.	8a-\	.	8b-\	.	8fff\	.
8E-\J	.	8g\J	.	8b-\J	.	8ggg\J	.
=44	=44	=44	=44	=44	=44	=44	=44
8F\L	ff	8c\L	ff	8ee-\L	ff	8ggg\L	ff
8F\	.	8cc\	.	8ee-\	.	8aaa\	.
8G-\	.	8b-\	.	8dd-\	.	8aaa\	.
8G-\	.	8b-\	.	8dd-\	.	8bbb-\	.
8G-\	.	8dd-\	.	8een\	.	8bbb-\	.
8G-\J	.	8dd-\J	.	8een\J	.	8bbb-\J	.
=45	=45	=45	=45	=45	=45	=45	=45
4F\	.	4f\ 4dd\	.	4b-\ 4ff\	.	8bbb-\L	.
.	.	.	.	.	.	8fff\	.
4r	.	4r	.	4r	.	8fff\	.
.	.	.	.	.	.	8ddd\	.
4r	.	4r	.	4r	.	8ddd\	.
.	.	.	.	.	.	8bb-\J	.
=46	=46	=46	=46	=46	=46	=46	=46
4FF/	p	4c\ 4e-\	p	4a/	p	8bb-\L	p
.	.	.	.	.	.	8aa\	.
4r	.	4r	.	4r	.	8aa\	.
.	.	.	.	.	.	8ff\	.
4r	.	4r	.	4r	.	8ee-\	.
.	.	.	.	.	.	8cc\J	.
=47	=47	=47	=47	=47	=47	=47	=47
4BB-/	.	4B-\ 4d\	.	4b-\	.	8b-\L	.
.	.	.	.	.	.	8bb-\	.
4r	.	4r	.	4r	.	8bb-\	.
.	.	.	.	.	.	8b-\	.
4r	.	4r	.	4r	.	8b-\	.
.	.	.	.	.	.	8B-\J	.
=48	=48	=48	=48	=48	=48	=48	=48
*>B1	*>B1	*>B1	*>B1	*>B1	*>B1	*>B1	*>B1
8r	.	8r	.	8r	.	4B-/	.
8BB-/L	.	8B-/L	.	8B-/L	.	.	.
8BB-/J	.	8B-/J	.	8B-/J	.	8r	.
=49:|!	=49:|!	=49:|!	=49:|!	=49:|!	=49:|!	=49:|!	=49:|!
*>B2	*>B2	*>B2	*>B2	*>B2	*>B2	*>B2	*>B2
8r	.	8r	.	8r	.	4B-/	.
8BB-/L	.	8B-/L	.	8B-/L	.	.	.
8BB-/J	.	8B-/J	.	8B-/J	.	4r	.
8r	.	8r	.	8r	.	.	.
8r	.	8r	.	8r	.	8r	.
!! Trio
=!|:	=!|:	=!|:	=!|:	=!|:	=!|:	=!|:	=!|:
*>C	*>C	*>C	*>C	*>C	*>C	*>C	*>C
8r	.	8r	.	8r	.	(16ccc#\LL	p
.	.	.	.	.	.	16ddd\JJ)	.
=50	=50	=50	=50	=50	=50	=50	=50
2.r	.	2.r	.	2.r	.	8bb-\L	.
.	.	.	.	.	.	(16een\L	.
.	.	.	.	.	.	16ff\JJ)	.
.	.	.	.	.	.	8dd\L	.
.	.	.	.	.	.	(16a\L	.
.	.	.	.	.	.	16b-\JJ)	.
.	.	.	.	.	.	8f/L	.
.	.	.	.	.	.	(16c#/L	.
.	.	.	.	.	.	16d/JJ)	.
=51	=51	=51	=51	=51	=51	=51	=51
4BB-/	f	4B-/	f	4B-/	f	8B-/L	.
.	.	.	.	.	.	(16en/L	.
.	.	.	.	.	.	16f/JJ)	.
4r	.	4r	.	[2ff\	.	8b-/L	.
.	.	.	.	.	.	(16en/L	.
.	.	.	.	.	.	16f/JJ)	.
4A\	p	(4e-\	p	.	.	8cc/L	.
.	.	.	.	.	.	(16en/L	.
.	.	.	.	.	.	16f/JJ)	.
=52	=52	=52	=52	=52	=52	=52	=52
4B-\	.	4d\	.	4ff\]	.	8dd/L	.
.	.	.	.	.	.	(16en/L	.
.	.	.	.	.	.	16f/JJ)	.
4A\	.	4c\	.	4ff\	.	8ee-/L	.
.	.	.	.	.	.	(16en/L	.
.	.	.	.	.	.	16f/JJ)	.
4B-\	.	4B-/	.	4ff\	.	8dd/L	.
.	.	.	.	.	.	(16en/L	.
.	.	.	.	.	.	16f/JJ)	.
=53	=53	=53	=53	=53	=53	=53	=53
4F\	.	4A/)	.	4ff\	.	8cc/L	.
.	.	.	.	.	.	(16en/L	.
.	.	.	.	.	.	16f/JJ)	.
4r	.	4r	.	4r	.	8ff/L	.
.	.	.	.	.	.	(16en/L	.
.	.	.	.	.	.	16f/JJ)	.
4r	.	4r	.	4r	.	8ff\L	.
.	.	.	.	.	.	(16ccc#\L	.
.	.	.	.	.	.	16ddd\JJ)	.
=54	=54	=54	=54	=54	=54	=54	=54
2.r	.	2.r	.	2.r	.	8bb-\L	.
.	.	.	.	.	.	(16een\L	.
.	.	.	.	.	.	16ff\JJ)	.
.	.	.	.	.	.	8dd\L	.
.	.	.	.	.	.	(16a\L	.
.	.	.	.	.	.	16b-\JJ)	.
.	.	.	.	.	.	8f/L	.
.	.	.	.	.	.	(16c#/L	.
.	.	.	.	.	.	16d/JJ)	.
=55	=55	=55	=55	=55	=55	=55	=55
4BB-/	f	4B-/	f	4B-/	f	8B-/L	.
.	.	.	.	.	.	(16a/L	.
.	.	.	.	.	.	16b-/JJ)	.
4r	.	4r	.	[2bb-\	.	8dd\L	.
.	.	.	.	.	.	(16a\L	.
.	.	.	.	.	.	16b-\JJ)	.
4G\	p	(4g\	p	.	.	8ee-\L	.
.	.	.	.	.	.	(16a\L	.
.	.	.	.	.	.	16b-\JJ)	.
=56	=56	=56	=56	=56	=56	=56	=56
4D\	.	4d\)	.	4bb-\]	.	8ff\L	.
.	.	.	.	.	.	(16a\L	.
.	.	.	.	.	.	16b-\JJ)	.
4E-\	.	4e-\	.	4gg\	.	8gg\L	.
.	.	.	.	.	.	(16ee-\L	.
.	.	.	.	.	.	16cc\JJ)	.
4F\	.	4c\	.	4ee-\	.	8a/L	.
.	.	.	.	.	.	(16f/L	.
.	.	.	.	.	.	16a/JJ)	.
=57	=57	=57	=57	=57	=57	=57	=57
4BB-/	.	4B-/	.	4dd\	.	8b-/L	.
.	.	.	.	.	.	(16f/L	.
.	.	.	.	.	.	16d/JJ)	.
4r	.	4r	.	4r	.	4B-/	.
8r	.	8r	.	8r	.	8r	.
=:|!|:	=:|!|:	=:|!|:	=:|!|:	=:|!|:	=:|!|:	=:|!|:	=:|!|:
*>D	*>D	*>D	*>D	*>D	*>D	*>D	*>D
8r	.	8r	.	8r	.	(16een\LL	.
.	.	.	.	.	.	16ff\JJ)	.
=58	=58	=58	=58	=58	=58	=58	=58
4r	.	4r	.	2.r	.	8g\L	.
.	.	.	.	.	.	(16een\L	.
.	.	.	.	.	.	16ff\JJ)	.
4Bn\	p	(4d\	p	.	.	8ddd\L	.
.	.	.	.	.	.	(16een\L	.
.	.	.	.	.	.	16ff\JJ)	.
4G\	.	4Bn/	.	.	.	8g\L	.
.	.	.	.	.	.	(16een\L	.
.	.	.	.	.	.	16ff\JJ)	.
=59	=59	=59	=59	=59	=59	=59	=59
4c\	.	4e-\)	.	4r	.	8g\L	.
.	.	.	.	.	.	(16dd\L	.
.	.	.	.	.	.	16ee-\JJ)	.
4C/	.	(4E-/	.	(4ee-\	p	8g\L	.
.	.	.	.	.	.	(16dd\L	.
.	.	.	.	.	.	16ee-\JJ)	.
4BB-/	.	4D-/)	.	4gg-\	.	8g-\L	.
.	.	.	.	.	.	(16dd\L	.
.	.	.	.	.	.	16ee-\JJ)	.
=60	=60	=60	=60	=60	=60	=60	=60
4AA/	.	4C/	.	4cc\)	.	8f\L	.
.	.	.	.	.	.	(16dd\L	.
.	.	.	.	.	.	16ee-\JJ)	.
4A\	.	(4c\	.	4r	.	8ccc\L	.
.	.	.	.	.	.	(16dd\L	.
.	.	.	.	.	.	16ee-\JJ)	.
4F\	.	4A/)	.	4r	.	8f\L	.
.	.	.	.	.	.	(16dd\L	.
.	.	.	.	.	.	16ee-\JJ)	.
=61	=61	=61	=61	=61	=61	=61	=61
4BB-/	.	4d\	.	4r	.	8f/L	.
.	.	.	.	.	.	(16cc#/L	.
.	.	.	.	.	.	16dd/JJ)	.
4D\	.	4B-/	.	(4ff\	.	8f\L	.
.	.	.	.	.	.	(16een\L	.
.	.	.	.	.	.	16ff\JJ)	.
4BB-/	.	4B-/	.	4dd\)	.	8f\L	.
.	.	.	.	.	.	(16ccc#\L	.
.	.	.	.	.	.	16ddd\JJ)	.
=62	=62	=62	=62	=62	=62	=62	=62
2.r	.	2.r	.	2.r	.	8bb-\L	.
.	.	.	.	.	.	(16een\L	.
.	.	.	.	.	.	16ff\JJ)	.
.	.	.	.	.	.	8dd\L	.
.	.	.	.	.	.	(16a\L	.
.	.	.	.	.	.	16b-\JJ)	.
.	.	.	.	.	.	8f/L	.
.	.	.	.	.	.	(16c#/L	.
.	.	.	.	.	.	16d/JJ)	.
=63	=63	=63	=63	=63	=63	=63	=63
4AA-/	f	4A-/	f	4B-/	f	8B-/L	.
.	.	.	.	.	.	(16a/L	.
.	.	.	.	.	.	16b-/JJ)	.
4r	.	4r	.	[2bb-\	.	8dd\L	.
.	.	.	.	.	.	(16a\L	.
.	.	.	.	.	.	16b-\JJ)	.
4G\	p	(4g\	p	.	.	8ee-\L	.
.	.	.	.	.	.	(16a\L	.
.	.	.	.	.	.	16b-\JJ)	.
=64	=64	=64	=64	=64	=64	=64	=64
4D\	.	4d\	.	(4bb-\]	.	8ff\L	.
.	.	.	.	.	.	(16a\L	.
.	.	.	.	.	.	16b-\JJ)	.
4E-\	.	4e-\	.	4gg\	.	8gg\L	.
.	.	.	.	.	.	(16ee-\L	.
.	.	.	.	.	.	16cc\JJ)	.
4F\	.	4c\)	.	4ee-\)	.	8a/L	.
.	.	.	.	.	.	(16f/L	.
.	.	.	.	.	.	16a/JJ)	.
=65	=65	=65	=65	=65	=65	=65	=65
*>D1	*>D1	*>D1	*>D1	*>D1	*>D1	*>D1	*>D1
4BB-/	.	4B-/	.	4dd\	.	8b-/L	.
.	.	.	.	.	.	(16f/L	.
.	.	.	.	.	.	16d/JJ)	.
4r	.	4r	.	4r	.	4B-/	.
8r	.	8r	.	8r	.	8r	.
=66:|!	=66:|!	=66:|!	=66:|!	=66:|!	=66:|!	=66:|!	=66:|!
*>D2	*>D2	*>D2	*>D2	*>D2	*>D2	*>D2	*>D2
4BB-/	.	4B-/	.	4dd\	.	8b-/L	.
.	.	.	.	.	.	16f/L	.
.	.	.	.	.	.	16d/JJ	.
4r	.	4r	.	8r	.	8B-/	.
.	.	.	.	4d-/	ff	4dd-\	ff
4r	.	4r	.	.	.	.	.
.	.	.	.	[8c/	.	[8cc\	.
=67	=67	=67	=67	=67	=67	=67	=67
8BB-\L 8F\	ff	8F/L 8d-/	ff	8c/L]	.	8cc\L]	.
8BB-\ 8F\	.	8F/ 8d-/	.	8B-/J	.	8b-\	.
8BB-\J 8F\	.	8F/J 8d-/	.	8B-/	.	8b-\J	.
8r	.	8r	.	4d-/	.	4dd-\	.
4r	.	4r	.	.	.	.	.
.	.	.	.	[8c/	.	[8cc\	.
=68	=68	=68	=68	=68	=68	=68	=68
8BB-\L 8F\	ff	8F/L 8d-/	ff	8c/L]	.	8cc\L]	.
8BB-\ 8F\	.	8F/ 8d-/	.	8B-/J	.	8b-\	.
8BB-\J 8F\	.	8F/J 8d-/	.	8B-/	.	8b-\J	.
8r	.	8r	.	4d-/	.	4dd-\	.
4r	.	4r	.	.	.	.	.
.	.	.	.	[8c/	.	[8cc\	.
=69	=69	=69	=69	=69	=69	=69	=69
8BB-/L	.	8B-/L	.	8c/L]	.	8cc\L]	.
8F/	.	8f/	.	8B-/	.	8b-\	.
8BB-/	.	8B-/	.	8B-/	.	8b-\	.
8F/	.	8f/	.	8d-/	.	8dd-\	.
8FF/	.	8F/	.	8c/	.	8cc\	.
8F/J	.	8f/J	.	8A/J	.	8a\J	.
=70	=70	=70	=70	=70	=70	=70	=70
4BB-/	.	4B-/	.	4B-/	.	4b-\	.
8r	.	8r	.	8r	.	8r	.
==	==	==	==	==	==	==	==
*-	*-	*-	*-	*-	*-	*-	*-
!!!ENC: Craig Stuart Sapp
!!!END: 2006/02/13/
